MonoIcons/scalable/status/user-available-symbolic.svg

<?xml version="1.0" encoding="UTF-8"?>
<svg height="16px" viewBox="0 0 16 16" width="16px" xmlns="http://www.w3.org/2000/svg">
    <path d="m 3 1 c -1.644531 0 -3 1.355469 -3 3 v 6 c 0 1.644531 1.355469 3 3 3 h 1 v 3 l 3 -3 h 6 c 1.644531 0 3 -1.355469 3 -3 v -6 c 0 -1.644531 -1.355469 -3 -3 -3 z m 0 0" fill="#2e3436"/>
</svg>

<svg width="16" height="16" viewBox="0 0 16 16" fill="none" xmlns="http://www.w3.org/2000/svg">
<path d="M3 1C1.35547 1 0 2.35547 0 4V10C0 11.6445 1.35547 13 3 13H4V16L7 13H13C14.6445 13 16 11.6445 16 10V4C16 2.35547 14.6445 1 13 1H3Z" fill="#2E3436"/>
</svg>
